X:1
T: Dandaleith
C:William Marshall
P: adapted by Bruce Shawyer
R:Strathspey
Q: 128
K:F
M:4/4
L:1/16
|:c2|Ad3 d3c AF3 F3A|c3d cA3 G4 G2c2|Ad3 d3c AF3 F3e|f3g aa3 A4 A2G2|
Ff3 f3g f2ga a3g|fd3 c3A G4 G3A|Ff3 f3g f2ga a3g|fc3 d3f A4 A2d2|
cA3 A3d cA3 A3d|cA3 A3F G4 G2d2|cA3 A3d cA3 A3a|fc3 d3f A4 A2g2|
f3g ag3 fd3 df3|cA3 A3F G4 G2A2|F3G Ad3 cA3 A3a|fc3 d3f A4 A2:|
